X: 1
T: Lamb Skinnet
M: 6/8
L: 1/8
R: jig
K: Gmaj
|:GBd dBG|c2e e2g|GBd dBG|F2A A2B|
GBd dBG|c2e efg|fed ed^c|1ded =cBA:|2d3 def||
|:gdB gdB|c2e e2g|dBG dBG|F2A ABc|
dBG dBG|c2e efg|dBG cAF|1G3 def:|2G3 z3||
